!!!OTL: Aus der Passion.
!!!ARE: Europa, Mitteleuropa, Deutschland
!!!SCT: A0543A
!!!TXL: @@DE
!!!YEM: Copyright 1995, estate of Helmut Schaffrath.
**kern	**text
*M6/2	*
*met(C|3)	*
*clefC4	*
*k[b-]	*
*F:ion	*
!LO:TX:a:t=jon. F.	!
!LO:N:vis=1	!
2ryy	.
!LO:N:vis=1	!
2ryy	.
!LO:N:vis=1	!
{2F	Je-
=1	=1
!LO:N:vis=0	!
1F	-ſus
!LO:N:vis=1	!
2c	der
!LO:N:vis=0	!
1A	ging
!LO:N:vis=1	!
2F	den
=2	=2
!LO:N:vis=0	!
1c	Berg
!LO:N:vis=1	!
2d	hinan,
!LO:N:vis=0	!
1c}	.
!LO:N:vis=1	!
{2c	er
=3	=3
!LO:N:vis=0	!
1A	ruft
!LO:N:vis=1	!
2B-	ſein
*lig	*
!LO:N:vis=1	!
2c	himli-
!LO:N:vis=1	!
2c	.
*Xlig	*
!LO:N:vis=1	!
2B-	-ſchen
=4	=4
*lig	*
!LO:N:vis=1.	!
2.A	va-
!LO:N:vis=2	!
4G	.
!LO:N:vis=1	!
2F	.
!LO:N:vis=0	!
1G	.
*Xlig	*
!LO:N:vis=1	!
2G	-ter
=5	=5
!LO:N:vis=0	!
1F	an:
!LO:TX:a:t=P:0r in the source:problem	!
!LO:N:vis=0	!
1.r}	.
!LO:N:vis=1	!
{2A	Ach
=6	=6
!LO:N:vis=0	!
1A	va-
!LO:N:vis=1	!
2A	-ter,
*lig	*
!LO:N:vis=1	!
2A	lieb-
!LO:N:vis=1	!
2B-	.
*Xlig	*
!LO:N:vis=1	!
2c	-ſter
=7	=7
*lig	*
!LO:N:vis=1	!
2c	va-
!LO:N:vis=1	!
2B-	.
*Xlig	*
!LO:N:vis=1	!
2A	-ter
!LO:N:vis=0	!
1G}	mein,
!LO:N:vis=1	!
{2A	kan
=8	=8
*lig	*
!LO:N:vis=1	!
2F	ich
!LO:N:vis=1	!
2G	.
*Xlig	*
!LO:N:vis=1	!
2A	der
*lig	*
!LO:N:vis=1	!
2c	marter
!LO:N:vis=1	!
2c	.
*Xlig	*
!LO:N:vis=1	!
2B-	nit
=9	=9
*lig	*
!LO:N:vis=1	!
2A	v-
!LO:N:vis=1	!
2F	.
*Xlig	*
!LO:N:vis=1	!
2A	-ber-
!LO:N:vis=0	!
1G	-ho-
!LO:N:vis=1	!
2G	-ben
=10	=10
1.F/ll}	ſein.
==	==
!!!GTL: Geistliche Volkslieder
!!!AGN: Romanze, Ballade, Lied, religioeses Lied
!! Coelner Gsgb. 1623 S. 137
!!!ONB: ESAC (Essen Associative Code) Database: ALTDEU
!!!AMT: compound duple
!!!AIN: vox
!!!EED: Helmut Schaffrath
!!!EEV: 1.0
!!!RDF**kern: l = terminal long
!!!AMD: Ionian
!!!URL-scan: https://rosdok.uni-rostock.de/mcrviewer/recordIdentifier/rosdok_ppn738218359/iview2/phys_0724.iview2?x=-495.6391625615763&y=1512.9330049096607&scale=0.4629418472063854&rotation=0&layout=singlePageLayout&logicalDiv=log_0007
!!!ENC: Anna Maria Matuszewska
!!!EEV: 2024/20/03
*-	*-
